X: 16886
T: Haudanmaan Hääpolska
R: waltz
M: 3/4
K: Gmajor
|:"Am" E2F^G A2Bc "Dm" dcBA|"E" ^GABc B2d2 "G" d2B=G|
"C" cBcd e=fed "Dm" ccBA|1 "E" ^GABc BAGF G2E2:|2 "E" ^GABG "Am" A4 A4||
|:"C" e2GF G2e2 "Em" (3e=fe dc|"G" d>edB GGBc "E" d2B2|
"Am" cBcd e=fed "Dm" ccBA|1 "E" ^GABc BAGF G2E2:|2 "E" ^GABG "Am" A4 A4

